svg/musical-notes.svg

<?xml version="1.0" encoding="UTF-8" standalone="no"?>
<svg
   xmlns:dc="http://purl.org/dc/elements/1.1/"
   xmlns:cc="http://creativecommons.org/ns#"
   xmlns:rdf="http://www.w3.org/1999/02/22-rdf-syntax-ns#"
   xmlns:svg="http://www.w3.org/2000/svg"
   xmlns="http://www.w3.org/2000/svg"
   xmlns:sodipodi="http://sodipodi.sourceforge.net/DTD/sodipodi-0.dtd"
   xmlns:inkscape="http://www.inkscape.org/namespaces/inkscape"
   class="ionicon"
   viewBox="0 0 512 512"
   version="1.1"
   id="svg6"
   sodipodi:docname="musical-notes.svg"
   inkscape:version="1.0.2 (e86c8708, 2021-01-15)">
  <metadata
     id="metadata12">
    <rdf:RDF>
      <cc:Work
         rdf:about="">
        <dc:format>image/svg+xml</dc:format>
        <dc:type
           rdf:resource="http://purl.org/dc/dcmitype/StillImage" />
      </cc:Work>
    </rdf:RDF>
  </metadata>
  <defs
     id="defs10" />
  <sodipodi:namedview
     pagecolor="#ffffff"
     bordercolor="#666666"
     borderopacity="1"
     objecttolerance="10"
     gridtolerance="10"
     guidetolerance="10"
     inkscape:pageopacity="0"
     inkscape:pageshadow="2"
     inkscape:window-width="689"
     inkscape:window-height="480"
     id="namedview8"
     showgrid="false"
     inkscape:zoom="1.3027344"
     inkscape:cx="256"
     inkscape:cy="256"
     inkscape:window-x="44"
     inkscape:window-y="25"
     inkscape:window-maximized="0"
     inkscape:current-layer="svg6" />
  <title
     id="title2">Musical Notes</title>
  <path
     style="color:#000000;font-style:normal;font-variant:normal;font-weight:normal;font-stretch:normal;font-size:medium;line-height:normal;font-family:sans-serif;font-variant-ligatures:normal;font-variant-position:normal;font-variant-caps:normal;font-variant-numeric:normal;font-variant-alternates:normal;font-variant-east-asian:normal;font-feature-settings:normal;font-variation-settings:normal;text-indent:0;text-align:start;text-decoration:none;text-decoration-line:none;text-decoration-style:solid;text-decoration-color:#000000;letter-spacing:normal;word-spacing:normal;text-transform:none;writing-mode:lr-tb;direction:ltr;text-orientation:mixed;dominant-baseline:auto;baseline-shift:baseline;text-anchor:start;white-space:normal;shape-padding:0;shape-margin:0;inline-size:0;clip-rule:nonzero;display:inline;overflow:visible;visibility:visible;isolation:auto;mix-blend-mode:normal;color-interpolation:sRGB;color-interpolation-filters:linearRGB;solid-color:#000000;solid-opacity:1;vector-effect:none;fill:#000000;fill-opacity:1;fill-rule:nonzero;stroke-width:1;stroke-linecap:butt;stroke-linejoin:miter;stroke-miterlimit:4;stroke-dasharray:none;stroke-dashoffset:0;stroke-opacity:1;color-rendering:auto;image-rendering:auto;shape-rendering:auto;text-rendering:auto;enable-background:accumulate;stop-color:#000000;stop-opacity:1;stroke:none;opacity:1"
     d="m 421.84,37.37 c -6.4186,-4.945175 -14.78396,-6.596039 -22.6,-4.46 L 199.92,86.49 C 185.69476,90.310735 175.85609,103.27129 176,118 v 226 c 0,6.74 -4.36,12.56 -11.11,14.83 l -0.12,0.05 -52,18 C 92.88,383.53 80,402 80,423.91 c -0.147821,18.08501 8.519221,35.10943 23.23,45.63 9.3347,6.78118 20.5722,10.44186 32.11,10.46 6.03617,-0.0105 12.03067,-1.00005 17.75,-2.93 l 0.38,-0.13 21.84,-7.94 c 19.42393,-6.48453 32.56669,-24.61262 32.69,-45.09 v -212 c 0,-7.29 4.77,-13.21 12.16,-15.07 l 0.21,-0.06 L 395,150.14 c 2.52678,-0.65243 4.99153,1.25036 5,3.86 v 141.93 c 0,6.75 -4.25,12.38 -11.11,14.68 l -0.25,0.09 -50.89,18.11 c -20.30775,6.67934 -33.95797,25.73303 -33.75,47.11 -0.18134,18.13966 8.48699,35.23004 23.23,45.8 14.43437,10.43472 33.0493,13.1777 49.88,7.35 l 0.36,-0.12 21.84,-7.95 c 19.42237,-6.48075 32.56548,-24.60531 32.69,-45.08 V 58 c 0.0441,-8.091342 -3.71902,-15.732491 -10.16,-20.63 z"
     id="path4" />
</svg>

<svg xmlns="http://www.w3.org/2000/svg" width="512" height="512" viewBox="0 0 512 512"><title>ionicons-v5-j</title><path d="M421.84,37.37a25.86,25.86,0,0,0-22.6-4.46L199.92,86.49A32.3,32.3,0,0,0,176,118v226c0,6.74-4.36,12.56-11.11,14.83l-.12.05-52,18C92.88,383.53,80,402,80,423.91a55.54,55.54,0,0,0,23.23,45.63A54.78,54.78,0,0,0,135.34,480a55.82,55.82,0,0,0,17.75-2.93l.38-.13L175.31,469A47.84,47.84,0,0,0,208,423.91v-212c0-7.29,4.77-13.21,12.16-15.07l.21-.06L395,150.14a4,4,0,0,1,5,3.86V295.93c0,6.75-4.25,12.38-11.11,14.68l-.25.09-50.89,18.11A49.09,49.09,0,0,0,304,375.92a55.67,55.67,0,0,0,23.23,45.8,54.63,54.63,0,0,0,49.88,7.35l.36-.12L399.31,421A47.83,47.83,0,0,0,432,375.92V58A25.74,25.74,0,0,0,421.84,37.37Z"/></svg>
